assets/img/braze_icons/thermometer-cold.svg

<svg fill="none" height="24" viewBox="0 0 24 24" width="24" xmlns="http://www.w3.org/2000/svg"><g fill="#801ed7"><path clip-rule="evenodd" d="m18 1c-1.6569 0-3 1.34315-3 3v9.9998c-1.213.9111-2 2.3633-2 4.0002 0 2.7614 2.2386 5 5 5s5-2.2386 5-5c0-1.6369-.787-3.0891-2-4.0002v-9.9998c0-1.65685-1.3431-3-3-3z" fill-rule="evenodd"/><path d="m10 4c0-.55228-.44771-1-1-1-.55228 0-1 .44772-1 1v2.58579l-1.29289-1.2929c-.39053-.39052-1.02369-.39052-1.41422 0-.39052.39053-.39052 1.02369 0 1.41422l2.70711 2.7071v1.58579h-1.58579l-2.7071-2.70711c-.39053-.39052-1.02369-.39052-1.41422 0-.39052.39053-.39052 1.02369 0 1.41422l1.2929 1.29289h-1.58579c-.55228 0-1 .4477-1 1s.44772 1 1 1h1.58579l-1.2929 1.2929c-.39052.3905-.39052 1.0237 0 1.4142.39053.3905 1.02369.3905 1.41422 0l2.7071-2.7071h1.58579v1.5858l-2.70711 2.7071c-.39052.3905-.39052 1.0237 0 1.4142.39053.3905 1.02369.3905 1.41422 0l1.29289-1.2929v2.5858c0 .5523.44772 1 1 1 .55229 0 1-.4477 1-1v-2.6337c.3824.2211.8799.168 1.2071-.1592.3905-.3905.3905-1.0237 0-1.4142l-1.2071-1.2071v-1.5858h2c.5523 0 1-.4477 1-1s-.4477-1-1-1h-2v-1.58578l2.7071-2.70711c.3905-.39053.3905-1.02369 0-1.41422-.3905-.39052-1.0237-.39052-1.4142 0l-1.2929 1.2929z"/></g></svg>

<svg width="24" height="24" viewBox="0 0 24 24" fill="none" xmlns="http://www.w3.org/2000/svg">
<path fill-rule="evenodd" clip-rule="evenodd" d="M18 1C16.3431 1 15 2.34315 15 4V13.9998C13.787 14.9109 13 16.3631 13 18C13 20.7614 15.2386 23 18 23C20.7614 23 23 20.7614 23 18C23 16.3631 22.213 14.9109 21 13.9998V4C21 2.34315 19.6569 1 18 1Z" fill="#801ED7"/>
<path d="M10 4C10 3.44772 9.55229 3 9 3C8.44772 3 8 3.44772 8 4V6.58579L6.70711 5.29289C6.31658 4.90237 5.68342 4.90237 5.29289 5.29289C4.90237 5.68342 4.90237 6.31658 5.29289 6.70711L8 9.41421V11H6.41421L3.70711 8.29289C3.31658 7.90237 2.68342 7.90237 2.29289 8.29289C1.90237 8.68342 1.90237 9.31658 2.29289 9.70711L3.58579 11H2C1.44772 11 1 11.4477 1 12C1 12.5523 1.44772 13 2 13H3.58579L2.29289 14.2929C1.90237 14.6834 1.90237 15.3166 2.29289 15.7071C2.68342 16.0976 3.31658 16.0976 3.70711 15.7071L6.41421 13H8V14.5858L5.29289 17.2929C4.90237 17.6834 4.90237 18.3166 5.29289 18.7071C5.68342 19.0976 6.31658 19.0976 6.70711 18.7071L8 17.4142V20C8 20.5523 8.44772 21 9 21C9.55229 21 10 20.5523 10 20V17.3663C10.3824 17.5874 10.8799 17.5343 11.2071 17.2071C11.5976 16.8166 11.5976 16.1834 11.2071 15.7929L10 14.5858V13H12C12.5523 13 13 12.5523 13 12C13 11.4477 12.5523 11 12 11H10V9.41422L12.7071 6.70711C13.0976 6.31658 13.0976 5.68342 12.7071 5.29289C12.3166 4.90237 11.6834 4.90237 11.2929 5.29289L10 6.58579V4Z" fill="#801ED7"/>
</svg>
